categories/symbolic/application-content-illicit-substance-symbolic.svg

<?xml version="1.0" encoding="UTF-8" standalone="no"?>
<svg
   xmlns:dc="http://purl.org/dc/elements/1.1/"
   xmlns:cc="http://creativecommons.org/ns#"
   xmlns:rdf="http://www.w3.org/1999/02/22-rdf-syntax-ns#"
   xmlns:svg="http://www.w3.org/2000/svg"
   xmlns="http://www.w3.org/2000/svg"
   id="svg6"
   version="1.1"
   width="16"
   height="16">
  <metadata
     id="metadata12">
    <rdf:RDF>
      <cc:Work
         rdf:about="">
        <dc:format>image/svg+xml</dc:format>
        <dc:type
           rdf:resource="http://purl.org/dc/dcmitype/StillImage" />
        <dc:title />
      </cc:Work>
    </rdf:RDF>
  </metadata>
  <defs
     id="defs10" />
  <g
     id="g4"
     transform="translate(-872 -552)"
     color="#000" />
  <g
     transform="rotate(-45,6.8232233,2.8054564)"
     id="g4567" />
  <path
     id="rect23"
     d="M 12.5,0 C 12.223,0 12,0.223 12,0.5 V 4.1816406 C 10.835311,4.593201 10,5.6909174 10,7 v 6 2 c 0,0.554 0.446,1 1,1 h 4 c 0.554,0 1,-0.446 1,-1 V 12 7 C 16,5.6909174 15.164689,4.593201 14,4.1816406 V 0.5 C 14,0.223 13.777,0 13.5,0 Z M 7.7402344,3.9824219 6.4824219,4.3496094 7,6.2832031 8.2597656,5.9140625 Z M 5.8085938,4.5 0.01367188,6.0527344 0.53125,7.984375 6.3261719,6.4316406 Z M 3.1015625,9.0683594 c -0.5112382,0 -1.0223253,0.1961535 -1.4140625,0.5878906 -0.78347427,0.783474 -0.78347427,2.044651 0,2.828125 L 4.515625,15.3125 c 0.7834743,0.783473 2.0446507,0.783473 2.828125,0 0.7834743,-0.783474 0.7834743,-2.044651 0,-2.828125 L 4.515625,9.65625 C 4.1238879,9.2645128 3.6128007,9.0683594 3.1015625,9.0683594 Z m 2.1210937,2.7089846 0.7070313,0.707031 0.7070313,0.707031 c 0.3917371,0.391737 0.3917372,1.022326 0,1.414063 -0.3917372,0.391738 -1.0223254,0.391738 -1.4140626,0 L 4.515625,13.898438 3.8085938,13.191406 4.515625,12.484375 Z"
     style="opacity:1;fill:#666666;fill-opacity:1;stroke:none;stroke-width:10;stroke-opacity:1" />
  <path
     id="path4592"
     d="M 7.5,0 C 7.5,0 7.1466007,-0.00689411 6.7773438,0.17773438 6.4080868,0.36236285 6,0.83333333 6,1.5 6,2.1666667 6.4080868,2.6376371 6.7773438,2.8222656 7.0851888,3 7,3.5 7,3.5 6.9904374,4.1761613 8.0095626,4.1761613 8,3.5 8.0554862,2.5 7.5,2.0878589 7.2226562,1.9277344 7.0919132,1.8623629 7,1.8333333 7,1.5 7,1.1666667 7.0919132,1.1376371 7.2226562,1.0722656 7.3533994,1.0068941 7.5,1 7.5,1 8.1761613,1.00956 8.1761613,-0.0095626 7.5,0 Z"
     style="color:#000000;font-style:normal;font-variant:normal;font-weight:normal;font-stretch:normal;font-size:medium;line-height:normal;font-family:sans-serif;font-variant-ligatures:normal;font-variant-position:normal;font-variant-caps:normal;font-variant-numeric:normal;font-variant-alternates:normal;font-feature-settings:normal;text-indent:0;text-align:start;text-decoration:none;text-decoration-line:none;text-decoration-style:solid;text-decoration-color:#000000;letter-spacing:normal;word-spacing:normal;text-transform:none;writing-mode:lr-tb;direction:ltr;text-orientation:mixed;dominant-baseline:auto;baseline-shift:baseline;text-anchor:start;white-space:normal;shape-padding:0;clip-rule:nonzero;display:inline;overflow:visible;visibility:visible;opacity:0.5;isolation:auto;mix-blend-mode:normal;color-interpolation:sRGB;color-interpolation-filters:linearRGB;solid-color:#000000;solid-opacity:1;vector-effect:none;fill:#666666;fill-opacity:1;fill-rule:nonzero;stroke:none;stroke-width:1px;stroke-linecap:round;stroke-linejoin:miter;stroke-miterlimit:4;stroke-dasharray:none;stroke-dashoffset:0;stroke-opacity:1;color-rendering:auto;image-rendering:auto;shape-rendering:auto;text-rendering:auto;enable-background:accumulate" />
</svg>

<?xml version="1.0" encoding="UTF-8" standalone="no"?>
<svg
   xmlns:dc="http://purl.org/dc/elements/1.1/"
   xmlns:cc="http://creativecommons.org/ns#"
   xmlns:rdf="http://www.w3.org/1999/02/22-rdf-syntax-ns#"
   xmlns:svg="http://www.w3.org/2000/svg"
   xmlns="http://www.w3.org/2000/svg"
   xmlns:sodipodi="http://sodipodi.sourceforge.net/DTD/sodipodi-0.dtd"
   xmlns:inkscape="http://www.inkscape.org/namespaces/inkscape"
   height="16"
   width="16"
   version="1.1"
   id="svg6"
   sodipodi:docname="illicit-substance.svg"
   inkscape:version="0.92.5 (2060ec1f9f, 2020-04-08)">
  <metadata
     id="metadata12">
    <rdf:RDF>
      <cc:Work
         rdf:about="">
        <dc:format>image/svg+xml</dc:format>
        <dc:type
           rdf:resource="http://purl.org/dc/dcmitype/StillImage" />
        <dc:title></dc:title>
      </cc:Work>
    </rdf:RDF>
  </metadata>
  <defs
     id="defs10" />
  <sodipodi:namedview
     pagecolor="#ffffff"
     bordercolor="#666666"
     borderopacity="1"
     objecttolerance="10"
     gridtolerance="10"
     guidetolerance="10"
     inkscape:pageopacity="0"
     inkscape:pageshadow="2"
     inkscape:window-width="1920"
     inkscape:window-height="1017"
     id="namedview8"
     showgrid="true"
     inkscape:zoom="1"
     inkscape:cx="105.96458"
     inkscape:cy="-48.732595"
     inkscape:window-x="0"
     inkscape:window-y="30"
     inkscape:window-maximized="1"
     inkscape:current-layer="svg6"
     showborder="false">
    <inkscape:grid
       type="xygrid"
       id="grid822"
       empspacing="4"
       visible="false"
       enabled="true" />
    <inkscape:grid
       type="xygrid"
       id="grid824"
       color="#ffef3f"
       opacity="0.2745098"
       empcolor="#ffef3f"
       empopacity="0.2745098"
       empspacing="2"
       spacingx="0.5"
       spacingy="0.5"
       dotted="true"
       visible="false"
       enabled="true" />
  </sodipodi:namedview>
  <g
     color="#000"
     transform="translate(-872 -552)"
     id="g4" />
  <path
     style="opacity:1;fill:#666666;fill-opacity:1;stroke:none;stroke-width:10;stroke-opacity:1"
     d="M 12.5 0 C 12.223 0 12 0.223 12 0.5 L 12 4.1816406 C 10.835311 4.593201 10 5.6909174 10 7 L 10 13 L 10 15 C 10 15.554 10.446 16 11 16 L 15 16 C 15.554 16 16 15.554 16 15 L 16 12 L 16 7 C 16 5.6909174 15.164689 4.593201 14 4.1816406 L 14 0.5 C 14 0.223 13.777 0 13.5 0 L 12.5 0 z M 7.7402344 3.9824219 L 6.4824219 4.3496094 L 7 6.2832031 L 8.2597656 5.9140625 L 7.7402344 3.9824219 z M 5.8085938 4.5 L 0.013671875 6.0527344 L 0.53125 7.984375 L 6.3261719 6.4316406 L 5.8085938 4.5 z M 3.1015625 9.0683594 C 2.5903243 9.0683594 2.0792372 9.2645129 1.6875 9.65625 C 0.90402573 10.439724 0.90402573 11.700901 1.6875 12.484375 L 4.515625 15.3125 C 5.2990993 16.095973 6.5602757 16.095973 7.34375 15.3125 C 8.1272243 14.529026 8.1272243 13.267849 7.34375 12.484375 L 4.515625 9.65625 C 4.1238879 9.2645128 3.6128007 9.0683594 3.1015625 9.0683594 z M 5.2226562 11.777344 L 5.9296875 12.484375 L 6.6367188 13.191406 C 7.0284559 13.583143 7.028456 14.213732 6.6367188 14.605469 C 6.2449816 14.997207 5.6143934 14.997207 5.2226562 14.605469 L 4.515625 13.898438 L 3.8085938 13.191406 L 4.515625 12.484375 L 5.2226562 11.777344 z "
     id="rect23" />
  <g
     id="g4567"
     transform="rotate(-45,6.8232233,2.8054564)" />
  <path
     style="color:#000000;font-style:normal;font-variant:normal;font-weight:normal;font-stretch:normal;font-size:medium;line-height:normal;font-family:sans-serif;font-variant-ligatures:normal;font-variant-position:normal;font-variant-caps:normal;font-variant-numeric:normal;font-variant-alternates:normal;font-feature-settings:normal;text-indent:0;text-align:start;text-decoration:none;text-decoration-line:none;text-decoration-style:solid;text-decoration-color:#000000;letter-spacing:normal;word-spacing:normal;text-transform:none;writing-mode:lr-tb;direction:ltr;text-orientation:mixed;dominant-baseline:auto;baseline-shift:baseline;text-anchor:start;white-space:normal;shape-padding:0;clip-rule:nonzero;display:inline;overflow:visible;visibility:visible;opacity:0.5;isolation:auto;mix-blend-mode:normal;color-interpolation:sRGB;color-interpolation-filters:linearRGB;solid-color:#000000;solid-opacity:1;vector-effect:none;fill:#666666;fill-opacity:1;fill-rule:nonzero;stroke:none;stroke-width:1px;stroke-linecap:round;stroke-linejoin:miter;stroke-miterlimit:4;stroke-dasharray:none;stroke-dashoffset:0;stroke-opacity:1;color-rendering:auto;image-rendering:auto;shape-rendering:auto;text-rendering:auto;enable-background:accumulate"
     d="M 7.5,0 C 7.5,0 7.1466007,-0.00689411 6.7773438,0.17773438 6.4080868,0.36236285 6,0.83333333 6,1.5 6,2.1666667 6.4080868,2.6376371 6.7773438,2.8222656 7.0851888,3 7,3.5 7,3.5 6.9904374,4.1761613 8.0095626,4.1761613 8,3.5 8.0554862,2.5 7.5,2.0878589 7.2226562,1.9277344 7.0919132,1.8623629 7,1.8333333 7,1.5 7,1.1666667 7.0919132,1.1376371 7.2226562,1.0722656 7.3533994,1.0068941 7.5,1 7.5,1 c 0.6761613,0.00956 0.6761613,-1.0095626 0,-1 z"
     id="path4592"
     inkscape:connector-curvature="0"
     sodipodi:nodetypes="cssccccsscc" />
</svg>
